X: 198
T: Joe Yates" Varsoviana No 2
B: australian dance tunes
M:3/4
L:1/8
Q: 1/4=100
K:G
V:1 
D2||G>A B2 G2|E4 A2|DE FG AB|c4 c2|!
e>e e2 c2|A4 G2|F2 e2 d2|1B4:|2G4 DG||!
B>A B2 DG|B>A B2 DG|B>B B2 c2|A4 AB|c>B c>B AB|!
c>B c2 AB|1c>B c2 d2|B4DG:|2e2 d2 AB|G6||
% abcbook-tune_id 62a07850a5c53f93cacd19a7


% abcbook-boost 0
% abcbook-tablature 
% abcbook-transpose 
% abcbook-lastupdated 1654683750294
% abcbook-soundfonts 
% abcbook-repeats 1


